!!!OTL: Das Kiddelein (270), S. 575
!!!id: T0459
**kern
*clefG2
*k[f#]
*D:
{16d
8a
=1
8a
8g
8f#
16f#
16f#
=2
8g
8b
8a}
=3
{8d
=4
8d
8d
8e
8f#
=5
16g
16g
8f#
8e}
=6
{8a
=7
8f#
16e
16e
8d
8d
=8
4d}
8r
=9
{8d
=10
8d
8d
8e
8f#
=11
16g
8g
16f#
8e}
=12
{8a
=13
8f#
16e
16e
8d}
==
*-
!!!minrhy: 16
!!!meters: 2/4 ]  ZZ[5
!!!cut: Das Kiddelein (270), S. 575
!!!reg: Luxemburg
!!!trd: Singendes Volk, Esch-Alzette, 1937 posth.
!!!rhy1:  X_  X_X_X_XX  X_X_X_
!!!rhy2: X_  X_X_X_X_  XXX_X_
!!!key: T0459  16  D 2/4 ]  ZZ[5
!!!mod: SECHSTONSKALA DUR ?]  AMBITUS[6
!!!kad: 52121
!!!akz: 54_14_31_14_3_
!!!fot: 'a__b__c__b__d__
!!!for: 'a__b__c__d__cw_
!!!fok: 'V__^a_\__^a_\__
!! PHRAS[AUFTAKTIG]
!!!fkt: ???
!!!bem: Rammeldingen, J.P. Gloden, 19.2.1934
!! THILL; Mathias
!! PR[21] 2K[8] 2G[8] 3K[5] 3G[10] 4A[4] 4Ü[0] 5A[0] 6K[0] 6G[0]
!! 7K[0] 7G[1] 8A[0] MEHR[0] SI[36] ABS[78] SR[15] SP[21]
!! ST[32] 2k[9] 2g[24] 3k[3] 3g[3] 4d[4] 4ü[0] 5d[0] 6k[0] 6g[0]
!! 7k[0] 7g[0] 8d[0] mehr[1] si[44] dm[-8] sr[33] sp[10]
!! 1F[56] 2F[35] 3F[9] 4F[0] LF[0] 2P[0] 3P[0] 4P[0] TRI[0] DF[3] AB[79]
!! TF[0] U3K[0] U3[0] U4[0] U4Ü[0] U5[4] U6K[0] U6[8] U7K[0] U7[14]
!! N1[30] N2K[0] N2[20] N3K[0] N3[15] N4[5] N4Ü[0] N5[3] N6K[0] N6[0]
!!!n7k: 0] N7[1] O1[0] O2K[0] O2[0] O3K[0] O3[0] HÖ[0
